X: 15556
T: Gloomy Winter
R: strathspey
M: 4/4
K: Aminor
A2 AB AG E2|cB ce dB d<g|A2 e>A AG E2|D2 E<G A2 AB:|
ce gc Bc d2|c>B Ac B<e E2|E2 G>E EA Bc/d/|c>B A/G/E/D/ E<A A2||

